assets/icons/mail/replied.svg

<?xml version="1.0" encoding="UTF-8" standalone="no"?>
<svg
   viewBox="0 0 24 24"
   height="24"
   width="24"
   version="1.1"
   id="svg4"
   sodipodi:docname="replied.svg"
   inkscape:version="1.2 (1:1.2.1+202207142221+cd75a1ee6d)"
   xmlns:inkscape="http://www.inkscape.org/namespaces/inkscape"
   xmlns:sodipodi="http://sodipodi.sourceforge.net/DTD/sodipodi-0.dtd"
   xmlns="http://www.w3.org/2000/svg"
   xmlns:svg="http://www.w3.org/2000/svg">
  <defs
     id="defs8" />
  <sodipodi:namedview
     id="namedview6"
     pagecolor="#ffffff"
     bordercolor="#666666"
     borderopacity="1.0"
     inkscape:pageshadow="2"
     inkscape:pageopacity="0.0"
     inkscape:pagecheckerboard="0"
     showgrid="true"
     inkscape:snap-page="true"
     inkscape:zoom="32"
     inkscape:cx="7.734375"
     inkscape:cy="13.484375"
     inkscape:window-width="1920"
     inkscape:window-height="1016"
     inkscape:window-x="0"
     inkscape:window-y="0"
     inkscape:window-maximized="1"
     inkscape:current-layer="svg4"
     inkscape:showpageshadow="2"
     inkscape:deskcolor="#d1d1d1">
    <inkscape:grid
       type="xygrid"
       id="grid6" />
  </sodipodi:namedview>
  <path
     style="fill:#808080;stroke-width:1"
     d="m 5.0149997,6 -0.35625,0.5475 7.3412503,5.275001 7.34375,-5.295001 -0.35625,-0.5275 -6.9875,4.21625 z"
     id="path1048" />
  <path
     id="path864"
     style="color:#000000;fill:#808080;fill-opacity:1"
     d="m 4.7871094,3 c -0.6769423,0.00559 -1.2506051,0.048153 -1.7597656,0.3027344 -0.3394409,0.1697202 -0.6300064,0.4624356 -0.796875,0.8378906 -0.1668694,0.375455 -0.2304688,0.8177114 -0.2304688,1.359375 v 2.5 5 2.5 c 0,0.541662 0.063599,0.983919 0.2304688,1.359375 0.1668686,0.375456 0.4574341,0.66817 0.796875,0.837891 0.5091605,0.254581 1.0828233,0.297134 1.7597656,0.302734 0.2256471,0.0019 0.4628919,0 0.7128906,0 h 2.5 v -1 h -2.5 c -0.999994,0 -1.7062311,-0.03671 -2.0273438,-0.197266 -0.1605561,-0.08028 -0.244995,-0.162567 -0.328125,-0.349609 -0.08313,-0.187042 -0.1445312,-0.494793 -0.1445312,-0.953125 v -2.5 -5 -2.5 c 0,-0.4583304 0.061401,-0.7660836 0.1445312,-0.953125 0.08313,-0.1870414 0.1675689,-0.2693313 0.328125,-0.3496094 0.3211127,-0.1605561 1.0273498,-0.1972656 2.0273438,-0.1972656 h 13 c 0.999994,0 1.70623,0.036708 2.027344,0.1972656 0.160557,0.080279 0.244995,0.162568 0.328125,0.3496094 0.08313,0.1870414 0.144531,0.4947946 0.144531,0.953125 v 2.5 5 1.5 c 0,1.388886 -0.422973,2.188006 -1.166016,2.71875 -0.743041,0.530744 -1.889542,0.78125 -3.333984,0.78125 h -1.498047 l -0.002,-2.650391 c -0.982744,0.462142 -1.951288,0.953903 -2.904297,1.47461 -0.976249,0.538749 -1.91672,1.089141 -2.8242186,1.65039 0.9074986,0.5725 1.8479696,1.12922 2.8242186,1.667969 0.984999,0.53625 1.954298,1.022032 2.904297,1.457031 l 0.002,-2.599609 h 1.498047 c 1.555552,0 2.909061,-0.249497 3.916016,-0.96875 1.006954,-0.719253 1.583984,-1.920142 1.583984,-3.53125 v -1.5 -5 -2.5 c 0,-0.5416636 -0.0636,-0.98392 -0.230469,-1.359375 -0.16687,-0.375455 -0.457432,-0.6681704 -0.796875,-0.8378906 -0.67888,-0.3394409 -1.472662,-0.3027344 -2.472656,-0.3027344 h -13 c -0.2499987,0 -0.4872435,-0.00186 -0.7128906,0 z"
     sodipodi:nodetypes="ccssccssscsccssssccssssssssccssscccccccsssccsssssc" />
</svg>

<svg height="24" width="24" xmlns="http://www.w3.org/2000/svg"><path style="fill:gray;stroke-width:1" d="m5.015 6-.356.547L12 11.823l7.344-5.296L18.987 6 12 10.216z"/><path style="color:#000;fill:gray;fill-opacity:1" d="M4.787 3c-.677.006-1.25.048-1.76.303-.34.17-.63.462-.797.838C2.064 4.516 2 4.958 2 5.5v10c0 .542.064.984.23 1.36.167.375.458.668.797.837.51.255 1.083.297 1.76.303.226.002.463 0 .713 0H8v-1H5.5c-1 0-1.706-.037-2.027-.197a.615.615 0 0 1-.328-.35C3.06 16.266 3 15.958 3 15.5v-10c0-.458.061-.766.145-.953a.615.615 0 0 1 .328-.35C3.793 4.037 4.5 4 5.5 4h13c1 0 1.706.037 2.027.197.16.08.245.163.328.35.084.187.145.495.145.953v9c0 1.389-.423 2.188-1.166 2.719-.743.53-1.89.781-3.334.781h-1.498L15 15.35c-.983.462-1.951.954-2.904 1.474a65.913 65.913 0 0 0-2.825 1.65 56.02 56.02 0 0 0 2.825 1.669A47.045 47.045 0 0 0 15 21.6l.002-2.6H16.5c1.556 0 2.91-.25 3.916-.969C21.423 17.312 22 16.111 22 14.5v-9c0-.542-.064-.984-.23-1.36a1.72 1.72 0 0 0-.797-.837C20.293 2.963 19.5 3 18.5 3h-13c-.25 0-.487-.002-.713 0z"/></svg>
